X:1
T:The deathe of Steven
T:Christopher Tye
T:Source : Actes of the Apostles---Chapter VIII---1553. Editor : André Vierendeels (11/01/17).
T:The deathe of Steven
T:©
T:©
T:©
C:Christopher Tye
Z:©
%%score [ 1 [ 2 3 ] 4 ]
L:1/8
Q:1/4=120
M:4/4
K:F
V:1 treble nm="Soprano" snm="S"
V:2 treble-8 nm="Tenor 1" snm="T 1"
V:3 treble-8 nm="Tenor 2" snm="T 2"
V:4 bass nm="Bass" snm="B"
V:1
 z2 C2 F2 G2 | A2 B2 c3 B | A2 B2 A3 G | F2 F2 E4 | z2 G2 G2 ^F2 | G2 F2 F2 E2 | F2 A2 G2 c2 | %7
w: The death of|Steven dyd Saul con-|fort who dyd a-|gre with them,|that wold have|flayne the go- diye|sort, then at Je-|
 B2 G2 A4 | z2 F2 F2 G2 | A2 d2 c3 B | A2 A2 G2 c2 | c2 =B2 c4 | z2 A2 d3 c | B2 A2 GA F2 | %14
w: ru- sa- lem|scat- tred they|were both far and|nye, and through the|re- gions crept,|of Ju- dye|and of Sa- ma- rye,|
 E2 A2 GF F2 | F2 E2 F4- | F8 |] %17
w: the the twelve _ one-|lye er- cept|_|
V:2
 z2 A2 c3 c | c2 d2 ef e2 | f2 f2 f3 e | d2 d2 c4 | z2 _e2 d3 c | B2 B2 A2 G2 | F2 f2 e2 f2 | %7
w: The death of|Steven dyd Saul _ con-|fort who dyd a-|gre with them,|that wold have|flayne the go- diye|sort, then at Je-|
 d2 e2 c4 | z2 B2 A3 G | F2 d2 cd =c2 | f2 f2 e3 f | g3 f e4 | z2 f2 f3 e | %13
w: ru- sa- lem|scat- tred they|were both far _ and|nye, and through the|re- gions crept,|of Ju- dye|
"^-natural""^-natural" d2 c2 ef d2 | ^c2 fe dcBA |"^-natural" c3 B A4- | A8 |] %17
w: and of Sa- ma rye,|the twelve _ _ _ _ one-|lye er- cept.|_|
V:3
 z2 F2 A2 G2 | F2 F2 GA G2 | F2 d2 c3 c | A2 B2 G4 | z2 G2 B2 A2 | G2 d2 c3 B | A2 c2 c3 F | %7
w: The death of|Stevn dyd Saul _ con-|fort who dyd a-|gre with them,|that wold have|flayne the go- diye|sort, then at Je-|
 G2 G2 F4 | z2 F2 A2 G2 | c2 B A GA G2 | F2 c2 c2 c2 | d2 d2 c4 |"^-natural" z2 c2 B3 G | %13
w: ru- sa- lem|scat- tred they|were both far _ and _|nye, and through the|re- gions crept,|of Ju- dye|
 FG AB c2 A2 |"^-natural" A2 c2 BAGF | G2 G2 F4- | F8 |] %17
w: and _ of _ Sa- ma-|rye the twelve _ _ one-|lye er- cept/|_|
V:4
 z2 F,2 F,2 E,2 | F,2 D,2 C,2 C,2 | F,,2 B,,2 F,3 C, | D,2 B,,2 C,4 | z2 C,2 G,,2 D,2 | %5
w: The death of|Steven dyd Saul con-|fort who dyd a-|gre with them,|that wold have|
 G,,2 B,,2 F,,2 C,2 | F,,2 F,,2 C,2 A,,2 | B,,2 C,2 F,,4 | z2 B,,2 F,2 E,2 | F,2 B,,2 C,A,, C,2 | %10
w: flayne the go- diye|sort, then at Je-|ru- sa- lem|scat- tred they|were both far _ and|
 F,,2 F,2 C,2 A,2 | G,2 G,2 C,4 |"^-natural" z2 F,2 B,,3 C, | D,E, F,2 C,2 D,2 | %14
w: nye, and through the|re- gions crept,|of Ju- dye|and _ of Sa- ma-|
 A,,2 A,,2 B,,2 D,2 | C,2 C,2 F,,4- | F,,8 |] %17
w: rye the twelve one-|lye er- cept.|_|

